!!!COM: Anonymous
!!!CDT: [?]
!!!OTL@@LAT: Catharinae virginis laudes
!!!TXO: Latin
!!!ODT: 
!!!GTL: Hymnbook E
!!!ARL: Opactwo św. Wojciecha, Staniątki 
!!!voices:	6
**kern	**kern	**text	**kern	**text	**kern	**text	**kern	**text	**kern	**text
*staff6	*staff5	*staff5	*staff4	*staff4	*staff3	*staff3	*staff2	*staff2	*staff1	*staff1
*I"Organo	*I"Basso	*	*I"Alto II	*	*I"Alto I	*	*I"Canto II	*	*I"Canto I	*
=1-	=1-	=1-	=1-	=1-	=1-	=1-	=1-	=1-	=1-	=1-
*clefF4	*clefF4	*	*clefGv2	*	*clefGv2	*	*clefG2	*	*clefG2	*
*k[]	*k[]	*	*k[]	*	*k[]	*	*k[]	*	*k[]	*
*met(c|)	*met(c|)	*	*met(c|)	*	*met(c|)	*	*met(c|)	*	*met(c|)	*
*M2/2	*M2/2	*	*M2/2	*	*M2/2	*	*M2/2	*	*M2/2	*
1c	1c	Ca-	1c	Ca-	1e	Ca-	1cc	Ca-	1g	Ca-
=2	=2	=2	=2	=2	=2	=2	=2	=2	=2	=2
2A\	2A\	-tha-	2c\	-tha-	2e\	-tha-	2cc\	-tha-	2a/	-tha-
2G\	2G\	-ri-	2d\	-ri-	2d\	-ri-	2b\	-ri-	2b\	-ri-
=3	=3	=3	=3	=3	=3	=3	=3	=3	=3	=3
[1C	[1C	-nae	[1e	-nae	[1c	-nae	[1g	-nae	[1cc	-nae
=4	=4	=4	=4	=4	=4	=4	=4	=4	=4	=4
2C/]	2C/]	.	2e\]	.	2c\]	.	2g/]	.	2cc\]	.
2FF/	2F\	Vir-	2f\	Vir-	2c\	Vir-	2a/	Vir-	2a/	Vir-
=5	=5	=5	=5	=5	=5	=5	=5	=5	=5	=5
1GG	1G	-gi-	1d	-gi-	1g	-gi-	1b	-gi-	1dd	-gi-
=6	=6	=6	=6	=6	=6	=6	=6	=6	=6	=6
1C	1C	-nis	1c	-nis	1g	-nis	1cc	-nis	1ee	-nis
=7	=7	=7	=7	=7	=7	=7	=7	=7	=7	=7
2.c\	1c	lau-	1g	lau-	2.e\	lau-	1ee	lau-	2.cc\	lau-
4B\	.	.	.	.	4f\	.	.	.	4dd\	.
=8	=8	=8	=8	=8	=8	=8	=8	=8	=8	=8
4A\	2A\	.	2e\	.	2g\	.	2cc\	.	2ee\	.
4G\	.	.	.	.	.	.	.	.	.	.
[2F\	[2F\	-des	[2f\	-des	[2c\	-des	[2a/	-des	[2cc\	-des
=9	=9	=9	=9	=9	=9	=9	=9	=9	=9	=9
4F\]	2F\]	.	2f\]	.	2c\]	.	2a/]	.	2cc\]	.
4E\	.	.	.	.	.	.	.	.	.	.
4D\	2C/	de-	2e\	de-	2c\	de-	[2cc\	de-	2ee\	de-
4C/	.	.	.	.	.	.	.	.	.	.
=10	=10	=10	=10	=10	=10	=10	=10	=10	=10	=10
1GG	1G	-can-	1d	-can-	2d\	.	2cc\]	.	1gg	-can-
.	.	.	.	.	2g\	-can-	2b\	-can-	.	.
=11	=11	=11	=11	=11	=11	=11	=11	=11	=11	=11
1C	1C	-te-	1c	-te-	1g	-te-	1cc	-te-	1ee	-te-
=12	=12	=12	=12	=12	=12	=12	=12	=12	=12	=12
[1c	[1c	-mus	[1e	-mus	[1g	-mus	[1cc	-mus	[1ee	-mus
=13	=13	=13	=13	=13	=13	=13	=13	=13	=13	=13
2c\]	2c\]	.	2e\]	.	2g\]	.	2cc\]	.	2ee\]	.
2C/	2c\	Et	2e\	Et	2g\	Et	2cc\	Et	2cc\	Et
=14	=14	=14	=14	=14	=14	=14	=14	=14	=14	=14
1G	1G	fi-	1d	fi-	2.g\	fi-	2.b\	fi-	1dd	fi-
.	.	.	.	.	4f\	-de-	4a/	.	.	.
=15	=15	=15	=15	=15	=15	=15	=15	=15	=15	=15
2c\	2c\	-de-	2c\	-de-	2e\	-i	2g/	-de-	2ee\	-de-
2G\	2G\	-i	2B\	-i	4B\	pu-	[2g/	-i	2dd\	-i
.	.	.	.	.	4c\	.	.	.	.	.
=16	=16	=16	=16	=16	=16	=16	=16	=16	=16	=16
1D	1D	pu-	1A	pu-	2.d\	-gil-	2g/]	.	1dd	pu-
.	.	.	.	.	.	.	2f#/	pu-	.	.
.	.	.	.	.	4d\	-lem	.	.	.	.
=17	=17	=17	=17	=17	=17	=17	=17	=17	=17	=17
2E\	2E\	-gil-	2G/	-gil-	2e\	pre-	2g/	-gil-	2b\	-gil-
[2C/	[2C/	.	[2c\	-lem	[2e\	-ce	[2gg\	-lem	[2cc\	-lem
=18	=18	=18	=18	=18	=18	=18	=18	=18	=18	=18
2C/]	2C/]	.	4c\]	.	2e\]	.	2gg\]	.	2cc\]	.
.	.	.	4d\	.	.	.	.	.	.	.
2C/	2C/	-lem	4e\	.	2c\	in-	2ee\	pre-	2cc\	pre-
.	.	.	4f\	.	.	.	.	.	.	.
=19	=19	=19	=19	=19	=19	=19	=19	=19	=19	=19
4c\	2.c\	pre-	1g	pre-	[1e	-vo-	2.ee\	-ce	2.cc\	-ce
4B\	.	.	.	.	.	.	.	.	.	.
4A\	.	.	.	.	.	.	.	.	.	.
4G\	4B\	-ce	.	.	.	.	4dd\	.	4dd\	.
=20	=20	=20	=20	=20	=20	=20	=20	=20	=20	=20
4F\	2A\	in-	2c\	-ce	2e\]	.	2cc\	in-	2ee\	in-
4E\	.	.	.	.	.	.	.	.	.	.
[2D\	[2D\	-vo-	[2f\	in-	[2d\	.	[2dd\	-vo-	[2a/	-vo-
=21	=21	=21	=21	=21	=21	=21	=21	=21	=21	=21
2D\]	2D\]	.	2f\]	.	2d\]	.	4dd\]	.	4a/]	.
.	.	.	.	.	.	.	4cc\	.	4b\	.
2E\	2E\	.	2e\	-vo-	2g\	.	[2cc\	-ce-	2cc\	.
=22	=22	=22	=22	=22	=22	=22	=22	=22	=22	=22
2F\	2F\	-ce-	1d	-ce-	2f\	-ce-	2cc\]	.	1dd	-ce-
2G\	2G\	.	.	.	2d\	.	2b\	.	.	.
=23	=23	=23	=23	=23	=23	=23	=23	=23	=23	=23
*M3/2	*M3/2	*	*M3/2	*	*M3/2	*	*M3/2	*	*M3/2	*
1C	1C	-mus	1c	-mus	1g	-mus	1cc	-mus	1ee	-mus
2C/	2C/	Fe-	2c\	Fe-	2e\	Fe-	2cc\	Fe-	2ee\	Fe-
=24	=24	=24	=24	=24	=24	=24	=24	=24	=24	=24
1G	1G	-lix	1B	-lix	1g	-lix	1dd	-lix	1b	-lix
2C/	2C/	di-	2c\	di-	2e\	di-	2cc\	di-	2ee\	di-
=25	=25	=25	=25	=25	=25	=25	=25	=25	=25	=25
1GG	1G	-es	1d	-es	1g	-es	1b	-es	1dd	-es
2GG/	2GG/	i-	2d\	i-	2g\	i-	2b\	i-	2g/	i-
=26	=26	=26	=26	=26	=26	=26	=26	=26	=26	=26
1.C	1.C	-sta.	1.c	-sta.	1.e	-sta.	1.cc	-sta.	1.g	-sta.
==	==	==	==	==	==	==	==	==	==	==
*-	*-	*-	*-	*-	*-	*-	*-	*-	*-	*-
!!!GTL: Hymnbook E
!!!EFL: 9/117
!!!YEM: Creative Commons CC/BY/NC/SA 4.0
!!!ENC: Marcin Konik
!!!END: 
!!!EED: Marcin Konik
!!!EEV: 
!!!ONB: Translated from MusicXML and edited by Marcin Konik
!!!CharacterEncoding: utf-8
!!!RDF**kern: l=long note in original notation
!!!RDF**kern: i=editorial accidental
!!muse2ps: z14jc180F
